tools/download-figma-icons/icons/outlined-medium/light-bulb.svg

<svg width="25" height="24" viewBox="0 0 25 24" fill="none" xmlns="http://www.w3.org/2000/svg">
<path fill-rule="evenodd" clip-rule="evenodd" d="M20.1873 14.9962C18.1293 17.0542 15.9371 17.337 13.0698 17.5117C11.4753 17.5995 9.96935 17.6827 8.95234 18.6997L8.8121 18.8392L7.5176 17.5447L13.8663 11.196L15.2988 11.355L15.4976 13.1445C15.5403 13.5285 15.8651 13.812 16.2431 13.812C16.2701 13.812 16.2986 13.8105 16.3271 13.8075C16.7381 13.7617 17.0351 13.3905 16.9893 12.9795L16.7246 10.593C16.6856 10.2442 16.4103 9.969 16.0616 9.93L14.2698 9.73125L14.0718 7.94025C14.0328 7.5915 13.7576 7.31625 13.4088 7.27725L11.0223 7.01175C10.6211 6.97425 10.2393 7.26225 10.1943 7.67475C10.1486 8.0865 10.4456 8.457 10.8573 8.5035L12.6468 8.7015L12.8058 10.1355L6.4571 16.4842L5.1611 15.1882L5.30135 15.048C6.30785 14.0415 6.39635 12.5985 6.49985 10.9267C6.6746 8.0535 6.9581 5.86125 9.01385 3.8055C10.5033 2.31825 12.4841 1.5 14.5923 1.5H14.5976C16.7073 1.5015 18.6918 2.3235 20.1858 3.8145C21.6776 5.31075 22.5003 7.29675 22.5011 9.4095C22.5011 11.5222 21.6791 13.5068 20.1873 14.9962ZM3.95137 22.1872L1.81462 20.0497C1.39687 19.6327 1.39612 18.954 1.81237 18.5377L2.14312 18.2062L5.79487 21.8572L5.46337 22.1895C5.04712 22.6057 4.36987 22.605 3.95137 22.1872ZM5.92385 18.0735C5.9246 18.0743 5.92535 18.075 5.9261 18.0758C5.92685 18.0765 5.92835 18.0773 5.9291 18.078L7.7516 19.9005L6.85535 20.7968L3.2036 17.145L4.1006 16.2495L5.92385 18.0735ZM21.2474 2.754L21.2459 2.75175C19.4692 0.97875 17.1089 0.0015 14.5994 0H14.5927C12.0847 0 9.72741 0.97425 7.95366 2.7435C5.53416 5.1645 5.18541 7.8405 5.00316 10.836C4.91166 12.3142 4.84641 13.3822 4.24116 13.9867L1.61541 16.6132C1.61466 16.614 1.61316 16.614 1.61316 16.6147C1.61241 16.6155 1.61166 16.6163 1.61166 16.617L0.752159 17.4772C-0.249841 18.4785 -0.249091 20.1075 0.754409 21.111L2.89116 23.2477C3.39216 23.7495 4.05066 24 4.70916 24C5.36691 24 6.02391 23.7502 6.52416 23.25L10.0132 19.7603C10.5832 19.1903 11.5799 19.0957 13.1572 19.0087C16.1512 18.8265 18.8264 18.48 21.2474 16.0583C23.0234 14.2852 24.0014 11.9235 24.0014 9.4095C24.0007 6.89625 23.0227 4.53375 21.2474 2.754Z" fill="black"/>
</svg>

<svg width="25" height="24" viewBox="0 0 25 24" fill="none" xmlns="http://www.w3.org/2000/svg"><path fill-rule="evenodd" clip-rule="evenodd" d="M20.187 14.996c-2.058 2.058-4.25 2.341-7.117 2.516-1.595.087-3.1.17-4.118 1.188l-.14.14-1.294-1.295 6.348-6.349 1.433.159.199 1.79a.75.75 0 0 0 1.491-.165l-.264-2.387a.751.751 0 0 0-.663-.663l-1.792-.199-.198-1.79a.751.751 0 0 0-.663-.664l-2.387-.265a.761.761 0 0 0-.828.663.751.751 0 0 0 .663.829l1.79.197.159 1.434-6.349 6.35-1.296-1.297.14-.14c1.007-1.007 1.095-2.45 1.199-4.121.175-2.873.458-5.066 2.514-7.121A7.842 7.842 0 0 1 14.592 1.5h.006a7.869 7.869 0 0 1 5.588 2.314A7.877 7.877 0 0 1 22.5 9.41a7.842 7.842 0 0 1-2.314 5.587ZM3.951 22.187 1.815 20.05a1.07 1.07 0 0 1-.003-1.512l.331-.332 3.652 3.651-.332.332a1.07 1.07 0 0 1-1.512-.002Zm1.973-4.114.002.003.003.002 1.823 1.823-.897.896-3.651-3.652.897-.895 1.823 1.823ZM21.247 2.754l-.001-.002A9.357 9.357 0 0 0 14.599 0h-.006a9.339 9.339 0 0 0-6.64 2.744c-2.419 2.42-2.768 5.096-2.95 8.092-.091 1.478-.157 2.546-.762 3.15l-2.626 2.627-.002.002-.001.002-.86.86a2.57 2.57 0 0 0 .002 3.634l2.137 2.137A2.56 2.56 0 0 0 4.71 24c.658 0 1.315-.25 1.815-.75l3.49-3.49c.57-.57 1.566-.664 3.143-.751 2.994-.183 5.67-.529 8.09-2.95a9.332 9.332 0 0 0 2.754-6.65 9.366 9.366 0 0 0-2.754-6.655Z" fill="currentColor"/></svg>
